hosted/assets/icon/widgets/dark-mode/status.svg

<svg width="50" height="50" viewBox="0 0 50 50" fill="none" xmlns="http://www.w3.org/2000/svg">
<path d="M25 2C12.3086 2 2 12.3086 2 25C2 37.6914 12.3086 48 25 48C37.6914 48 48 37.6914 48 25C48 12.3086 37.6914 2 25 2ZM25 4C36.6094 4 46 13.3906 46 25C46 36.6094 36.6094 46 25 46C13.3906 46 4 36.6094 4 25C4 13.3906 13.3906 4 25 4ZM25 16C20.043 16 16 20.043 16 25C16 29.957 20.043 34 25 34C29.957 34 34 29.957 34 25C34 20.043 29.957 16 25 16ZM25 18C28.8789 18 32 21.1211 32 25C32 28.8789 28.8789 32 25 32C21.1211 32 18 28.8789 18 25C18 21.1211 21.1211 18 25 18Z" fill="white"/>
<path d="M41 25C41 33.8366 33.8366 41 25 41C16.1634 41 9 33.8366 9 25C9 16.1634 16.1634 9 25 9C33.8366 9 41 16.1634 41 25Z" fill="#3B9281"/>
<path fill-rule="evenodd" clip-rule="evenodd" d="M25 39C32.732 39 39 32.732 39 25C39 17.268 32.732 11 25 11C17.268 11 11 17.268 11 25C11 32.732 17.268 39 25 39ZM25 41C33.8366 41 41 33.8366 41 25C41 16.1634 33.8366 9 25 9C16.1634 9 9 16.1634 9 25C9 33.8366 16.1634 41 25 41Z" fill="white"/>
</svg>

<svg width="50" height="50" fill="none" xmlns="http://www.w3.org/2000/svg"><path d="M25 2C12.309 2 2 12.309 2 25s10.309 23 23 23 23-10.309 23-23S37.691 2 25 2zm0 2c11.61 0 21 9.39 21 21s-9.39 21-21 21S4 36.61 4 25 13.39 4 25 4zm0 12c-4.957 0-9 4.043-9 9s4.043 9 9 9 9-4.043 9-9-4.043-9-9-9zm0 2c3.879 0 7 3.121 7 7s-3.121 7-7 7-7-3.121-7-7 3.121-7 7-7z" fill="#fff"/><path d="M41 25c0 8.837-7.163 16-16 16S9 33.837 9 25 16.163 9 25 9s16 7.163 16 16z" fill="#3B9281"/><path fill-rule="evenodd" clip-rule="evenodd" d="M25 39c7.732 0 14-6.268 14-14s-6.268-14-14-14-14 6.268-14 14 6.268 14 14 14zm0 2c8.837 0 16-7.163 16-16S33.837 9 25 9 9 16.163 9 25s7.163 16 16 16z" fill="#fff"/></svg>
